front/public/static/landing/logos/gray/dailymotion.svg

<svg fill="none" height="300" viewBox="0 0 600 300" width="600" xmlns="http://www.w3.org/2000/svg"><path d="m168.273 182.833h-8.225l15.59-65.722h8.142l-15.498 65.722zm38.259 0h-27.468l15.701-65.722h8.225l-13.963 58.367h19.226zm21.543-25.414-5.934 25.414h-8.327l6.028-25.605-4.59-40.117h8.328l2.392 32.024 17.891-32.024h9.281zm184.209-32.953h-12.057l-13.028 58.367h-8.327l13.028-58.367h-13.207l1.822-7.355h33.591zm-.271 58.367h-7.374l14.749-65.722h8.131l-14.645 65.722zm53.754-47.233-7.272 32.248c-.987 4.564-2.367 7.827-4.155 10.156-2.725 3.635-7.187 5.409-13.223 5.409-9.955 0-15.659-4.291-15.77-11.648-.034-2.145.23-4.1 1.031-7.637l7.271-32.248c2.418-10.909 8.089-15.855 17.95-15.855 9.859 0 14.994 4.474 15.105 11.929.034 2.146-.23 4.382-.946 7.637h.009zm-14.543-12.674c-2.87 0-5.058.928-6.557 2.791-1.226 1.491-1.857 3.447-2.767 7.266l-7.272 32.431c-.451 1.953-.707 3.817-.689 5.217.059 3.919 2.673 6.055 7.169 6.055 4.785 0 7.331-2.7 8.856-9.41l7.365-32.058c.715-3.172.987-4.662.961-6.153-.059-4.01-2.579-6.155-7.084-6.155h.009zm-191.704-5.749h13.785l3.789 37.684c.682 7.264 1.065 13.129 1.559 21.064h.195c3.202-7.835 5.927-13.784 9.511-21.066l18.818-37.682h13.982l-7.468 65.631h-9.127l4.759-39.189c.876-7.082 1.847-13.13 3.015-20.394l-.197-.1c-3.303 7.082-6.215 13.312-9.799 20.494l-19.22 39.189h-11.749l-3.687-39.189c-.681-7.082-1.167-13.412-1.652-20.394h-.188c-1.643 6.982-3.202 13.221-5.245 20.394l-10.677 39.189h-9.223l18.819-65.628zm116.161 32.778c-4.931 25.207-15.659 34.045-32.579 34.045-13.343 0-20.692-5.641-20.692-20.13 0-4.332.478-8.565 1.551-13.825 5.126-25.198 15.668-34.045 32.68-34.045 13.241 0 20.691 5.641 20.691 20.13 0 4.332-.579 8.565-1.644 13.825zm-20.113-26.988c-11.019 0-18.46 7.057-22.522 27.268-1.065 4.698-1.643 9.311-1.643 13.08 0 9.775 4.249 13.727 12.661 13.727 11.121 0 18.46-7.057 22.624-27.27.97-4.696 1.644-9.31 1.644-13.08 0-9.691-4.249-13.725-12.764-13.725zm-250.354-5.872c-1.575 0-15.3603.224-15.3603.224l-13.8537 65.622h6.5303v-.008c3.7214-.034 5.1013.042 8.736.042 16.9887 0 27.7417-7.531 32.6887-32.656h.009c1.065-5.242 1.652-9.457 1.652-13.775 0-14.446-7.101-19.449-20.402-19.449zm10.449 33.201c-4.181 20.144-10.875 24.751-22.0372 24.808-3.9006.017-4.7861-.016-7.7399-.059l10.6011-50.635v.018c3.3212-.075 4.104-.108 7.153-.075 8.548.073 13.675 3.263 13.675 12.922 0 3.752-.672 8.351-1.643 13.03zm400.001-33.201-13.164 58.871-9.775-58.871h-13.759l-14.962 65.763h8.652l13.155-59.882 9.698 59.882h13.616l14.875-65.763zm-368.335.02-27.365 65.724h8.795l4.982-12.285 3.159-7.63 1.115-2.949h9.23l-.298 2.949-.672 7.637-.954 12.285h8.328l5.156-65.731h-11.483zm-6.394 35.131 10.601-29.164-3.492 29.166z" fill="#364153"/></svg>

<svg width="600" height="300" viewBox="0 0 600 300" fill="none" xmlns="http://www.w3.org/2000/svg">
<path d="M168.273 182.833H160.048L175.638 117.111H183.78L168.282 182.833H168.273ZM206.532 182.833H179.064L194.765 117.111H202.99L189.027 175.478H208.253L206.532 182.833ZM228.075 157.419L222.141 182.833H213.814L219.842 157.228L215.252 117.111H223.58L225.972 149.135L243.863 117.111H253.144L228.075 157.419ZM412.284 124.466H400.227L387.199 182.833H378.872L391.9 124.466H378.693L380.515 117.111H414.106L412.284 124.466ZM412.013 182.833H404.639L419.388 117.111H427.519L412.874 182.833H412.013ZM465.767 135.6L458.495 167.848C457.508 172.412 456.128 175.675 454.34 178.004C451.615 181.639 447.153 183.413 441.117 183.413C431.162 183.413 425.458 179.122 425.347 171.765C425.313 169.62 425.577 167.665 426.378 164.128L433.649 131.88C436.067 120.971 441.738 116.025 451.599 116.025C461.458 116.025 466.593 120.499 466.704 127.954C466.738 130.1 466.474 132.336 465.758 135.591H465.767V135.6ZM451.224 122.926C448.354 122.926 446.166 123.854 444.667 125.717C443.441 127.208 442.81 129.164 441.9 132.983L434.628 165.414C434.177 167.367 433.921 169.231 433.939 170.631C433.998 174.55 436.612 176.686 441.108 176.686C445.893 176.686 448.439 173.986 449.964 167.276L457.329 135.218C458.044 132.046 458.316 130.556 458.29 129.065C458.231 125.055 455.711 122.91 451.206 122.91H451.215L451.224 122.926ZM259.52 117.177H273.305L277.094 154.861C277.776 162.125 278.159 167.99 278.653 175.925H278.848C282.05 168.09 284.775 162.141 288.359 154.859L307.177 117.177H321.159L313.691 182.808H304.564L309.323 143.619C310.199 136.537 311.17 130.489 312.338 123.225L312.141 123.125C308.838 130.207 305.926 136.437 302.342 143.619L283.122 182.808H271.373L267.686 143.619C267.005 136.537 266.519 130.207 266.034 123.225H265.846C264.203 130.207 262.644 136.446 260.601 143.619L249.924 182.808H240.701L259.52 117.18V117.177ZM375.681 149.955C370.75 175.162 360.022 184 343.102 184C329.759 184 322.41 178.359 322.41 163.87C322.41 159.538 322.888 155.305 323.961 150.045C329.087 124.847 339.629 116 356.641 116C369.882 116 377.332 121.641 377.332 136.13C377.332 140.462 376.753 144.695 375.688 149.955H375.681ZM355.568 122.967C344.549 122.967 337.108 130.024 333.046 150.235C331.981 154.933 331.403 159.546 331.403 163.315C331.403 173.09 335.652 177.042 344.064 177.042C355.185 177.042 362.524 169.985 366.688 149.772C367.658 145.076 368.332 140.462 368.332 136.692C368.332 127.001 364.083 122.967 355.568 122.967ZM105.214 117.095C103.639 117.095 89.8537 117.319 89.8537 117.319L76 182.941H82.5303V182.933C86.2517 182.899 87.6316 182.975 91.2663 182.975C108.255 182.975 119.008 175.444 123.955 150.319H123.964C125.029 145.077 125.616 140.862 125.616 136.544C125.616 122.098 118.515 117.095 105.214 117.095ZM115.663 150.296C111.482 170.44 104.788 175.047 93.6258 175.104C89.7252 175.121 88.8397 175.088 85.8859 175.045L96.487 124.41V124.428C99.8082 124.353 100.591 124.32 103.64 124.353C112.188 124.426 117.315 127.616 117.315 137.275C117.315 141.027 116.643 145.626 115.672 150.305L115.663 150.296ZM515.664 117.095L502.5 175.966L492.725 117.095H478.966L464.004 182.858H472.656L485.811 122.976L495.509 182.858H509.125L524 117.095H515.664ZM147.329 117.115L119.964 182.839H128.759L133.741 170.554L136.9 162.924L138.015 159.975H147.245L146.947 162.924L146.275 170.561L145.321 182.846H153.649L158.805 117.115H147.322H147.329ZM140.935 152.246L151.536 123.082L148.044 152.248L140.935 152.246Z" fill="#364153"/>
</svg>
